X:1
T:Das Neugeborne Kindlein, LM
T:Das Neugeborne Kindlein, LM
T:Melchior Vulpius, 1609; harm. by Bach, 1724
T:Public Domain Courtesy of the Cyber Hymnal™
C:Melchior Vulpius, 1609; harm. by Bach, 1724
Z:Public Domain
Z:Courtesy of the Cyber Hymnal™
%%score ( 1 2 ) ( 3 4 )
L:1/8
Q:1/4=115
M:3/4
K:F
V:1 treble 
V:2 treble 
V:3 bass 
V:4 bass 
V:1
 D2 D2 D2 | A3 G [DF]2 | [DA]2 [^CG]2 [DF]2 | [^CE]6 | A2 [FA]2 [F=B]2 | [Ec]4 [D=B]2 | %6
 [CA]2 [=B,^G]4 | [^CA]6 | [DA]2 [B,G]2 [A,E]2 | F3 z G [CA]2 | [DG]2 [CF]2 [CE]2 | [CF]6 | %12
 [Fc]2 [Fd]2 [Ec]2 | A3 G [DF]2 | [B,E]2 [A,D]2 [A,^C]2 | [A,D]6 |] %16
V:2
 D2 D2 D2 | E4 x2 | x6 | x6 | DE x4 | x6 | x6 | x6 | x6 | A,2 D2 x3 | x6 | x6 | x6 | E4 x2 | x6 | %15
 x6 |] %16
V:3
 ([D,F,][E,G,]) [F,A,]2 ([E,G,][D,F,]) | [^C,A,]4 [D,A,]2 | [F,,F,]2 [E,,G,]2 [D,,A,]2 | [A,,A,]6 | %4
 [F,A,]2 D2 [^G,,D]2 | (C2 ^F,2) [=B,,F,]2 | A,2 E,4 | [A,,E,]6 | [D,,F,]2 [D,E,]2 [^C,E,]2 | %9
 D,2 z [F,A,]2 x2 | [B,,B,]2 [C,A,]2 [C,G,]2 | [F,,A,]6 | [F,A,]2 [B,,G,]2 [C,G,]2 | %13
 E,2 A,2 [D,A,]2 | [G,,G,]2 [A,,F,]2 [A,,E,]2 | [D,,F,]6 |] %16
V:4
 x6 | x6 | x6 | x6 | x2 (E,D,) x2 | A,,4 x2 | (C,D,) (E,2 E,,2) | x6 | x6 | D,3 (B,2 E,) x | x6 | %11
 x6 | x6 | ^C,4 x2 | x6 | x6 |] %16

